dist/images/popup-close.svg

<svg width="30" height="30" viewBox="0 0 30 30" fill="none" xmlns="http://www.w3.org/2000/svg">
<path fill-rule="evenodd" clip-rule="evenodd" d="M15.0001 1.66675C7.63341 1.66675 1.66675 7.63341 1.66675 15.0001C1.66675 22.3667 7.63341 28.3334 15.0001 28.3334C22.3667 28.3334 28.3334 22.3667 28.3334 15.0001C28.3334 7.63341 22.3667 1.66675 15.0001 1.66675Z" fill="black" fill-opacity="0.54"/>
<path fill-rule="evenodd" clip-rule="evenodd" d="M21.6666 19.7833L19.7833 21.6666L14.9999 16.8833L10.2166 21.6666L8.33325 19.7833L13.1166 14.9999L8.33325 10.2166L10.2166 8.33325L14.9999 13.1166L19.7833 8.33325L21.6666 10.2166L16.8833 14.9999L21.6666 19.7833Z" fill="#F2E7FE"/>
</svg>

<svg width="30" height="30" fill="none" xmlns="http://www.w3.org/2000/svg"><path fill-rule="evenodd" clip-rule="evenodd" d="M15 1.667C7.633 1.667 1.667 7.633 1.667 15S7.633 28.333 15 28.333 28.333 22.367 28.333 15 22.367 1.667 15 1.667z" fill="#000" fill-opacity=".54"/><path fill-rule="evenodd" clip-rule="evenodd" d="M21.667 19.783l-1.884 1.884L15 16.883l-4.783 4.784-1.884-1.884L13.117 15l-4.784-4.783 1.884-1.884L15 13.117l4.783-4.784 1.884 1.884L16.883 15l4.784 4.783z" fill="#F2E7FE"/></svg>
